modules/feathericon/icons/google-plus.svg

<?xml version="1.0" encoding="UTF-8"?>
<svg width="24px" height="24px" viewBox="0 0 24 24" version="1.1" xmlns="http://www.w3.org/2000/svg" xmlns:xlink="http://www.w3.org/1999/xlink">
    <!-- Generator: sketchtool 52.2 (67145) - http://www.bohemiancoding.com/sketch -->
    <title>google-plus</title>
    <desc>Created with sketchtool.</desc>
    <g id="brand" stroke="none" stroke-width="1" fill="none" fill-rule="evenodd">
        <g id="google-plus" fill="#000000">
            <path d="M8.36363636,11.4545455 L14.3727273,11.4545455 C14.4272727,11.7727273 14.4727273,12.0909091 14.4727273,12.5090909 C14.4727273,16.1454545 12.0363636,18.7272727 8.36363636,18.7272727 C4.84545455,18.7272727 2,15.8818182 2,12.3636364 C2,8.84545455 4.84545455,6 8.36363636,6 C10.0818182,6 11.5181818,6.62727273 12.6272727,7.66363636 L10.9,9.32727273 C10.4272727,8.87272727 9.6,8.34545455 8.36363636,8.34545455 C6.19090909,8.34545455 4.41818182,10.1454545 4.41818182,12.3636364 C4.41818182,14.5818182 6.19090909,16.3818182 8.36363636,16.3818182 C10.8818182,16.3818182 11.8272727,14.5727273 11.9727273,13.6363636 L8.36363636,13.6363636 L8.36363636,11.4545455 Z M22,11.4545455 L22,13.2727273 L20.1818182,13.2727273 L20.1818182,15.0909091 L18.3636364,15.0909091 L18.3636364,13.2727273 L16.5454545,13.2727273 L16.5454545,11.4545455 L18.3636364,11.4545455 L18.3636364,9.63636364 L20.1818182,9.63636364 L20.1818182,11.4545455 L22,11.4545455 Z" id="Shape"></path>
        </g>
    </g>
</svg>

<svg width="24" height="24" viewBox="0 0 24 24" xmlns="http://www.w3.org/2000/svg"><path d="M8.364 11.455h6.009c.054.318.1.636.1 1.054 0 3.636-2.437 6.218-6.11 6.218A6.359 6.359 0 0 1 2 12.364 6.359 6.359 0 0 1 8.364 6c1.718 0 3.154.627 4.263 1.664L10.9 9.327c-.473-.454-1.3-.982-2.536-.982-2.173 0-3.946 1.8-3.946 4.019 0 2.218 1.773 4.018 3.946 4.018 2.518 0 3.463-1.81 3.609-2.746h-3.61v-2.181zm13.636 0v1.818h-1.818v1.818h-1.818v-1.818h-1.819v-1.818h1.819V9.636h1.818v1.819H22z" fill="#000" fill-rule="evenodd"/></svg>
